assets/icons/league.svg

<svg width="20" height="20" viewBox="0 0 20 20" fill="none" xmlns="http://www.w3.org/2000/svg">
<path d="M16.5096 4.67062L10.5721 2.19666C10.3912 2.12163 10.1974 2.08301 10.0015 2.08301C9.80574 2.08301 9.61185 2.12163 9.43099 2.19666L3.49349 4.67062C2.93994 4.89946 2.57812 5.44063 2.57812 6.04057C2.57812 12.1791 6.11898 16.4219 9.4279 17.8011C9.79281 17.9527 10.2041 17.9527 10.569 17.8011C13.2192 16.6971 17.4219 12.8842 17.4219 6.04057C17.4219 5.44063 17.0601 4.89946 16.5096 4.67062ZM10.0031 15.8838L10 4.10161L15.4396 6.36837C15.3376 11.0503 12.9007 14.4428 10.0031 15.8838Z" fill="currentColor"/>
</svg>

<svg xmlns="http://www.w3.org/2000/svg" width="20" height="20" fill="none" viewBox="0 0 20 20"><path fill="currentColor" d="m16.51 4.67-5.938-2.473a1.5 1.5 0 0 0-1.141 0L3.493 4.67c-.553.228-.915.77-.915 1.37 0 6.138 3.541 10.38 6.85 11.76.365.152.776.152 1.141 0 2.65-1.104 6.853-4.917 6.853-11.76 0-.6-.362-1.142-.912-1.37m-6.507 11.214L10 4.102l5.44 2.266c-.102 4.682-2.54 8.075-5.437 9.516"/></svg>
